modules/coreui-icons-brand/icons/stack-overflow.svg

<svg version="1.1" xmlns="http://www.w3.org/2000/svg" width="32" height="32" viewBox="0 0 32 32">
<title>stackoverflow</title>
<path d="M25.312 29.151v-8.536h2.849v11.385h-25.703v-11.385h2.839v8.536zM8.145 26.307h14.324v-2.848h-14.324zM8.495 19.839l13.975 2.916 0.599-2.76-13.969-2.912zM10.307 13.099l12.939 6.037 1.203-2.6-12.937-6.041-1.204 2.584zM13.927 6.719l10.953 9.141 1.813-2.163-10.953-9.135-1.803 2.151zM21 0l-2.328 1.724 8.541 11.473 2.328-1.724z"></path>
</svg>

<svg xmlns="http://www.w3.org/2000/svg" width="32" height="32" viewBox="0 0 32 32"><path d="M25.312 29.151v-8.536h2.849V32H2.458V20.615h2.839v8.536zM8.145 26.307h14.324v-2.848H8.145zm.35-6.468l13.975 2.916.599-2.76L9.1 17.083zm1.812-6.74l12.939 6.037 1.203-2.6-12.937-6.041-1.204 2.584zm3.62-6.38L24.88 15.86l1.813-2.163L15.74 4.562l-1.803 2.151zM21 0l-2.328 1.724 8.541 11.473 2.328-1.724z"/></svg>
